build/img/icon-vk.svg

<svg width="25" height="26" preserveAspectRatio="none" viewBox="0 0 25 26" fill="none" xmlns="http://www.w3.org/2000/svg">
<rect x="0.5" y="1.1665" width="24" height="24" rx="3.5"/>
<path stroke="none" fill="currentColor" d="M18.3482 15.2148C19.5548 16.3842 19.8061 16.956 19.8468 17.0263C20.3449 17.8934 19.2945 17.9614 19.2945 17.9614L17.2819 17.9918C17.2819 17.9918 16.8472 18.0809 16.279 17.6708C15.5252 17.1318 14.4951 15.7257 13.9427 15.9085C13.3813 16.0936 13.5602 17.5677 13.5602 17.5677C13.5602 17.5677 13.5647 17.7481 13.4379 17.8934C13.2975 18.0457 13.0259 17.9871 13.0259 17.9871H12.4463C12.4463 17.9871 10.298 17.9965 8.54574 16.089C6.63733 14.0103 5.04132 10.1225 5.04132 10.1225C5.04132 10.1225 4.94398 9.87645 5.04811 9.74522C5.1681 9.59758 5.49182 9.59992 5.49182 9.59992H7.64474C7.64474 9.59992 7.84622 9.62805 7.9911 9.74053C8.11335 9.83193 8.179 10.0053 8.179 10.0053C8.179 10.0053 8.43934 10.7295 8.90117 11.5637C9.79991 13.1901 10.2187 13.5463 10.5243 13.3705C10.9681 13.1151 10.8345 11.0716 10.8345 11.0716C10.8345 11.0716 10.8435 10.3287 10.6104 9.99831C10.4293 9.74053 10.0919 9.66554 9.94253 9.64445C9.82029 9.63039 10.0195 9.33511 10.2776 9.20388C10.6647 9.00703 11.3506 8.99297 12.1588 9.00234C12.7882 9.00937 13.0259 9 13.0259 9C13.7684 9.18748 13.5171 9.91395 13.5171 11.6481C13.5171 12.2058 13.4198 12.9886 13.8046 13.2463C13.9699 13.3612 14.563 13.3776 15.5704 11.5848C16.0504 10.7342 16.4284 9.93504 16.4284 9.93504C16.4284 9.93504 16.5099 9.75459 16.6299 9.6796C16.7567 9.59992 16.9242 9.59992 16.9242 9.59992L19.1903 9.61164C19.1903 9.61164 19.8717 9.52259 19.9804 9.84599C20.0959 10.1834 19.702 10.774 18.7783 12.0652C17.257 14.1861 17.0872 13.9892 18.3482 15.2148Z"/>
</svg>

<svg width="25" height="26" preserveAspectRatio="none" viewBox="0 0 25 26" fill="none" xmlns="http://www.w3.org/2000/svg"><rect x=".5" y="1.167" width="24" height="24" rx="3.5"/><path fill="currentColor" d="M18.348 15.215c1.207 1.17 1.458 1.741 1.499 1.811.498.867-.553.935-.553.935l-2.012.03s-.435.09-1.003-.32c-.754-.54-1.784-1.945-2.336-1.762-.562.185-.383 1.659-.383 1.659s.005.18-.122.325c-.14.153-.412.094-.412.094h-.58s-2.148.01-3.9-1.898C6.637 14.01 5.04 10.123 5.04 10.123s-.097-.247.007-.378c.12-.147.444-.145.444-.145h2.153s.201.028.346.14c.122.092.188.265.188.265s.26.724.722 1.559c.899 1.626 1.318 1.982 1.623 1.806.444-.255.31-2.298.31-2.298s.01-.743-.224-1.074c-.18-.257-.518-.332-.667-.354-.123-.014.077-.309.335-.44.387-.197 1.073-.211 1.88-.202.63.007.868-.002.868-.002.742.187.491.914.491 2.648 0 .558-.097 1.34.288 1.598.165.115.758.132 1.765-1.661.48-.85.858-1.65.858-1.65s.082-.18.202-.255c.127-.08.294-.08.294-.08l2.266.012s.682-.09.79.234c.116.337-.278.928-1.202 2.22-1.521 2.12-1.69 1.923-.43 3.149z"/></svg>
